X:1
T:Te Farmington Canal Song
M:6/8
L:1/8
K:G
B/2-c/2| d2 g B2 c| d2 B G3| A2 Bc-B A| d2 B G3| d2 g B2- c| d2 B G2 G/2G/2|\
 AB B/2B/2 AGF| G2 G G2||
